X: 88
T: TRUE LOVE CAN NE'ER FORGET
B: O'Neill's 88
M:  2/4
L: 1/8
Z: Transcribed by John Chambers <jc@trillian.mit.edu>
N: "Moderate"
K:G
D \
|G2 AB|AG Ez|D2 GB|dc A2 \
|G2 AB|AG Ez|D2 BA|G2 z||
||d \
|dd cB|cB A2|BB AG|AG F2 \
|GG AG|FB Ad|cB AF|D2 EF|
|G2 AB|AG Ez|D2 GB|dc Az \
|G2 AB|BAG Ez|DB BAG|G2 z||
